lib/brands/icons/ms-teams.svg

<svg xmlns="http://www.w3.org/2000/svg" fill="none" aria-hidden="true" viewBox="0 0 48 48"><g id="ms-teams-Icon"><g id="Group"><path id="rectangle" fill="url(#paint0_linear_94_16812)" d="M27 22.9032C27 22.4044 27.4044 22 27.9032 22H39.0968C39.5956 22 40 22.4044 40 22.9032V29.5C40 33.0899 37.0899 36 33.5 36V36C29.9101 36 27 33.0899 27 29.5V22.9032Z"/><path id="rectangle_2" fill="url(#paint1_linear_94_16812)" d="M17 21.2258C17 20.5488 17.5488 20 18.2258 20H31.7742C32.4512 20 33 20.5488 33 21.2258V31C33 35.4183 29.4183 39 25 39V39C20.5817 39 17 35.4183 17 31V21.2258Z"/><g id="ellipse"><circle cx="35" cy="17" r="3" fill="#34439E"/><circle cx="35" cy="17" r="3" fill="url(#paint2_linear_94_16812)"/></g><circle id="ellipse_2" cx="26" cy="15" r="4" fill="url(#paint3_linear_94_16812)"/><g id="Mask Group"><mask id="mask0_94_16812" width="16" height="30" x="17" y="9" maskUnits="userSpaceOnUse" style="mask-type:alpha"><g id="Union"><path fill="url(#paint4_linear_94_16812)" d="M25 19C27.7615 19 30 16.7615 30 14C30 11.2385 27.7615 9 25 9C22.2385 9 20 11.2385 20 14C20 16.7615 22.2385 19 25 19Z"/><path fill="url(#paint5_linear_94_16812)" d="M18.2258 20C17.5488 20 17 20.5488 17 21.2258V31C17 35.4183 20.5817 39 25 39C29.4183 39 33 35.4183 33 31V21.2258C33 20.5488 32.4512 20 31.7742 20H18.2258Z"/></g></mask><g mask="url(#mask0_94_16812)"><path id="rectangle_3" fill="black" fill-opacity="0.3" d="M15 21C15 19.3431 16.3431 18 18 18H25C26.6569 18 28 19.3431 28 21V33C28 34.6569 26.6569 36 25 36H15V21Z"/></g></g><rect id="rectangle_4" width="18" height="18" x="8" y="16" fill="url(#paint6_linear_94_16812)" rx="2"/><path id="T" fill="white" d="M21 20H13V21.8347H15.9949V30H18.0051V21.8347H21V20Z"/></g></g><defs><linearGradient id="paint0_linear_94_16812" x1="27" x2="40.1591" y1="22.7368" y2="31.3355" gradientUnits="userSpaceOnUse"><stop stop-color="#364088"/><stop offset="1" stop-color="#6E7EE1"/></linearGradient><linearGradient id="paint1_linear_94_16812" x1="17" x2="33" y1="28.4038" y2="28.4038" gradientUnits="userSpaceOnUse"><stop stop-color="#515FC4"/><stop offset="1" stop-color="#7084EA"/></linearGradient><linearGradient id="paint2_linear_94_16812" x1="32" x2="37.7963" y1="14.3158" y2="18.3947" gradientUnits="userSpaceOnUse"><stop stop-color="#364088"/><stop offset="1" stop-color="#6E7EE1"/></linearGradient><linearGradient id="paint3_linear_94_16812" x1="23.1429" x2="28.2857" y1="12.1429" y2="18.1429" gradientUnits="userSpaceOnUse"><stop stop-color="#4858AE"/><stop offset="1" stop-color="#4E60CE"/></linearGradient><linearGradient id="paint4_linear_94_16812" x1="21.4286" x2="27.8571" y1="10.4286" y2="17.9286" gradientUnits="userSpaceOnUse"><stop stop-color="#4858AE"/><stop offset="1" stop-color="#4E60CE"/></linearGradient><linearGradient id="paint5_linear_94_16812" x1="21.4286" x2="27.8571" y1="10.4286" y2="17.9286" gradientUnits="userSpaceOnUse"><stop stop-color="#4858AE"/><stop offset="1" stop-color="#4E60CE"/></linearGradient><linearGradient id="paint6_linear_94_16812" x1="8" x2="26" y1="25" y2="25" gradientUnits="userSpaceOnUse"><stop stop-color="#2A3887"/><stop offset="1" stop-color="#4C56B9"/></linearGradient></defs></svg>

<svg xmlns="http://www.w3.org/2000/svg" fill="none" aria-hidden="true" viewBox="0 0 48 48"><path fill="url(#a)" d="M27 22.903c0-.499.404-.903.903-.903h11.194c.499 0 .903.404.903.903V29.5a6.5 6.5 0 1 1-13 0v-6.597Z"/><path fill="url(#b)" d="M17 21.226c0-.677.549-1.226 1.226-1.226h13.548c.677 0 1.226.549 1.226 1.226V31a8 8 0 1 1-16 0v-9.774Z"/><circle cx="35" cy="17" r="3" fill="#34439E"/><circle cx="35" cy="17" r="3" fill="url(#c)"/><circle cx="26" cy="15" r="4" fill="url(#d)"/><mask id="g" width="16" height="30" x="17" y="9" maskUnits="userSpaceOnUse" style="mask-type:alpha"><path fill="url(#e)" d="M25 19a5 5 0 1 0 0-10 5 5 0 0 0 0 10Z"/><path fill="url(#f)" d="M18.226 20c-.677 0-1.226.549-1.226 1.226V31a8 8 0 1 0 16 0v-9.774c0-.677-.549-1.226-1.226-1.226H18.226Z"/></mask><g mask="url(#g)"><path fill="#000" fill-opacity=".3" d="M15 21a3 3 0 0 1 3-3h7a3 3 0 0 1 3 3v12a3 3 0 0 1-3 3H15V21Z"/></g><rect width="18" height="18" x="8" y="16" fill="url(#h)" rx="2"/><path fill="#fff" d="M21 20h-8v1.835h2.995V30h2.01v-8.165H21V20Z"/><defs><linearGradient id="a" x1="27" x2="40.159" y1="22.737" y2="31.335" gradientUnits="userSpaceOnUse"><stop stop-color="#364088"/><stop offset="1" stop-color="#6E7EE1"/></linearGradient><linearGradient id="b" x1="17" x2="33" y1="28.404" y2="28.404" gradientUnits="userSpaceOnUse"><stop stop-color="#515FC4"/><stop offset="1" stop-color="#7084EA"/></linearGradient><linearGradient id="c" x1="32" x2="37.796" y1="14.316" y2="18.395" gradientUnits="userSpaceOnUse"><stop stop-color="#364088"/><stop offset="1" stop-color="#6E7EE1"/></linearGradient><linearGradient id="d" x1="23.143" x2="28.286" y1="12.143" y2="18.143" gradientUnits="userSpaceOnUse"><stop stop-color="#4858AE"/><stop offset="1" stop-color="#4E60CE"/></linearGradient><linearGradient id="e" x1="21.429" x2="27.857" y1="10.429" y2="17.929" gradientUnits="userSpaceOnUse"><stop stop-color="#4858AE"/><stop offset="1" stop-color="#4E60CE"/></linearGradient><linearGradient id="f" x1="21.429" x2="27.857" y1="10.429" y2="17.929" gradientUnits="userSpaceOnUse"><stop stop-color="#4858AE"/><stop offset="1" stop-color="#4E60CE"/></linearGradient><linearGradient id="h" x1="8" x2="26" y1="25" y2="25" gradientUnits="userSpaceOnUse"><stop stop-color="#2A3887"/><stop offset="1" stop-color="#4C56B9"/></linearGradient></defs></svg>
